assets/icons/icon_volume.svg

<svg width="29" height="29" viewBox="0 0 29 29" fill="none" xmlns="http://www.w3.org/2000/svg">
<g clip-path="url(#clip0_58_3423)">
<path fill-rule="evenodd" clip-rule="evenodd" d="M22.0801 4.37427L23.2802 4.63703C23.9823 4.79076 25.3352 5.19842 26.5394 5.95065C27.7209 6.6887 29.0005 7.92015 29.0005 9.76544V16.0095C29.0005 18.5477 27.4744 20.1653 26.0927 21.0962C25.3989 21.5635 24.7122 21.8807 24.2027 22.081C23.9463 22.1816 23.7308 22.2544 23.5763 22.3027C23.4989 22.327 23.4364 22.3451 23.3914 22.3578C23.3689 22.3641 23.3508 22.3691 23.3372 22.3726L23.3204 22.3771L23.3148 22.3785L23.3126 22.3791C23.3126 22.3791 23.3108 22.3794 23.0687 21.421L23.3108 22.3794L22.0801 22.6904V4.37427ZM24.0574 19.9879C24.3515 19.8459 24.6709 19.6699 24.988 19.4562C26.0778 18.7221 27.0233 17.634 27.0233 16.0095V9.76544C27.0233 8.94665 26.465 8.23553 25.4919 7.62761C25.0258 7.33656 24.5192 7.10601 24.0574 6.93211V19.9879Z" fill="white"/>
<path fill-rule="evenodd" clip-rule="evenodd" d="M0.117188 0.659058H24.0567V1.64769H23.068C24.0567 1.64769 24.0567 1.64761 24.0567 1.64769V18.6311C24.0567 23.8591 21.7701 26.8237 20.8928 27.766C20.5154 28.1713 20.0082 28.3409 19.5383 28.3409H8.62298C8.16218 28.3409 7.6645 28.1782 7.28812 27.7863C6.39706 26.8583 4.02605 23.8883 4.02605 18.6311V5.09308L0.117188 0.659058ZM6.00332 4.71961V18.6311C6.00332 23.1255 7.96702 25.6185 8.66391 26.3636H19.4962C20.1804 25.6086 22.0794 23.1149 22.0794 18.6311V2.63633H4.49616L6.00332 4.34597V4.71961Z" fill="white"/>
<path fill-rule="evenodd" clip-rule="evenodd" d="M10.2162 5.60229C9.67015 5.60229 9.22754 6.04492 9.22754 6.59093C9.22754 7.13696 9.67015 7.57957 10.2162 7.57957H14.1707C14.7167 7.57957 15.1594 7.13696 15.1594 6.59093C15.1594 6.04492 14.7167 5.60229 14.1707 5.60229H10.2162ZM10.2162 9.55684C9.67015 9.55684 9.22754 9.99945 9.22754 10.5455C9.22754 11.0915 9.67015 11.5341 10.2162 11.5341H14.1707C14.7167 11.5341 15.1594 11.0915 15.1594 10.5455C15.1594 9.99945 14.7167 9.55684 14.1707 9.55684H10.2162ZM9.22754 14.5C9.22754 13.954 9.67015 13.5114 10.2162 13.5114H14.1707C14.7167 13.5114 15.1594 13.954 15.1594 14.5C15.1594 15.046 14.7167 15.4887 14.1707 15.4887H10.2162C9.67015 15.4887 9.22754 15.046 9.22754 14.5ZM10.2162 17.4659C9.67015 17.4659 9.22754 17.9085 9.22754 18.4546C9.22754 19.0006 9.67015 19.4432 10.2162 19.4432H12.1934C12.7395 19.4432 13.1821 19.0006 13.1821 18.4546C13.1821 17.9085 12.7395 17.4659 12.1934 17.4659H10.2162Z" fill="white"/>
</g>
<defs>
<clipPath id="clip0_58_3423">
<rect width="29" height="29" fill="white"/>
</clipPath>
</defs>
</svg>

<svg xmlns="http://www.w3.org/2000/svg" width="29" height="29" fill="none" viewBox="0 0 29 29"><g fill="#fff" fill-rule="evenodd" clip-path="url(#a)" clip-rule="evenodd"><path d="m22.08 4.374 1.2.263c.702.154 2.055.561 3.26 1.314C27.72 6.689 29 7.92 29 9.765v6.244c0 2.539-1.526 4.156-2.907 5.087a9.9 9.9 0 0 1-2.756 1.277l-.017.004-.005.002h-.002s-.002 0-.244-.958l.242.958-1.23.311zm1.977 15.614c.295-.142.614-.318.931-.532 1.09-.734 2.035-1.822 2.035-3.447V9.766c0-.818-.558-1.53-1.531-2.137a8 8 0 0 0-1.435-.696z"/><path d="M.117.66h23.94v.988h-.989.989V18.63c0 5.228-2.287 8.193-3.164 9.135a1.84 1.84 0 0 1-1.355.575H8.623c-.46 0-.958-.163-1.335-.555-.89-.928-3.262-3.898-3.262-9.155V5.093zm5.886 4.06V18.63c0 4.494 1.964 6.988 2.66 7.733h10.833c.684-.755 2.583-3.25 2.583-7.733V2.636H4.496l1.507 1.71z"/><path d="M10.216 5.602a.989.989 0 1 0 0 1.978h3.955a.989.989 0 1 0 0-1.978zm0 3.955a.989.989 0 1 0 0 1.977h3.955a.989.989 0 1 0 0-1.977zM9.228 14.5c0-.546.442-.989.988-.989h3.955a.989.989 0 1 1 0 1.978h-3.955a.99.99 0 0 1-.988-.989m.988 2.966a.989.989 0 1 0 0 1.977h1.977a.989.989 0 1 0 0-1.977z"/></g><defs><clipPath id="a"><path fill="#fff" d="M0 0h29v29H0z"/></clipPath></defs></svg>
